icons/svg/google-controller.svg

﻿<?xml version="1.0" encoding="utf-8"?>
<!DOCTYPE svg PUBLIC "-//W3C//DTD SVG 1.1//EN" "http://www.w3.org/Graphics/SVG/1.1/DTD/svg11.dtd">
<svg xmlns="http://www.w3.org/2000/svg" xmlns:xlink="http://www.w3.org/1999/xlink" version="1.1" baseProfile="full" width="24" height="24" viewBox="0 0 24.00 24.00" enable-background="new 0 0 24.00 24.00" xml:space="preserve">
	<path fill="#000000" fill-opacity="1" stroke-linejoin="round" d="M 7.97489,16L 4.98745,18.9874C 4.67076,19.3041 4.23325,19.5 3.75,19.5C 2.7835,19.5 2,18.7165 2,17.75L 2.01959,17.4873L 3.01603,10.1174C 3.21018,7.81122 5.14358,6 7.5,6L 16.5,6C 18.8564,6 20.7898,7.81122 20.984,10.1174L 21.9804,17.4873L 22,17.75C 22,18.7165 21.2165,19.5 20.25,19.5C 19.7667,19.5 19.3292,19.3041 19.0126,18.9874L 16.0251,16L 7.97489,16 Z M 6.99999,8.00001L 6.99999,10L 5,10L 5,11L 6.99999,11L 6.99999,13L 7.99999,13L 7.99999,11L 9.99999,11L 9.99999,10L 7.99999,10L 7.99999,8.00001L 6.99999,8.00001 Z M 16.5,8.00001C 16.0858,8.00001 15.75,8.33579 15.75,8.75001C 15.75,9.16422 16.0858,9.50001 16.5,9.50001C 16.9142,9.50001 17.25,9.16422 17.25,8.75001C 17.25,8.33579 16.9142,8.00001 16.5,8.00001 Z M 14.75,9.75001C 14.3358,9.75001 14,10.0858 14,10.5C 14,10.9142 14.3358,11.25 14.75,11.25C 15.1642,11.25 15.5,10.9142 15.5,10.5C 15.5,10.0858 15.1642,9.75001 14.75,9.75001 Z M 18.25,9.75001C 17.8358,9.75001 17.5,10.0858 17.5,10.5C 17.5,10.9142 17.8358,11.25 18.25,11.25C 18.6642,11.25 19,10.9142 19,10.5C 19,10.0858 18.6642,9.75001 18.25,9.75001 Z M 16.5,11.5C 16.0858,11.5 15.75,11.8358 15.75,12.25C 15.75,12.6642 16.0858,13 16.5,13C 16.9142,13 17.25,12.6642 17.25,12.25C 17.25,11.8358 16.9142,11.5 16.5,11.5 Z "/>
</svg>

<svg xmlns="http://www.w3.org/2000/svg" version="1.1" baseProfile="full" width="24" height="24" viewBox="0 0 24.00 24.00" xml:space="preserve"><path fill="#000" fill-opacity="1" stroke-linejoin="round" d="M7.975 16l-2.988 2.987c-.316.317-.754.513-1.237.513-.966 0-1.75-.784-1.75-1.75l.02-.263.996-7.37C3.21 7.81 5.144 6 7.5 6h9c2.356 0 4.29 1.81 4.484 4.117l.996 7.37.02.263c0 .966-.784 1.75-1.75 1.75-.483 0-.92-.196-1.237-.513L16.025 16h-8.05zM7 8v2H5v1h2v2h1v-2h2v-1H8V8H7zm9.5 0c-.414 0-.75.336-.75.75s.336.75.75.75.75-.336.75-.75S16.914 8 16.5 8zm-1.75 1.75c-.414 0-.75.336-.75.75s.336.75.75.75.75-.336.75-.75-.336-.75-.75-.75zm3.5 0c-.414 0-.75.336-.75.75s.336.75.75.75.75-.336.75-.75-.336-.75-.75-.75zM16.5 11.5c-.414 0-.75.336-.75.75s.336.75.75.75.75-.336.75-.75-.336-.75-.75-.75z"/></svg>
